flags/us-ms.svg

<svg width="512" height="512" viewBox="0 0 512 512" fill="none" xmlns="http://www.w3.org/2000/svg">
<path d="M0 0H104L256 64L408 0H512V512H408L256 448L104 512H0V0Z" fill="var(--flag-palette-bright-red, #d80027)"/>
<path d="M104 0H128L256 64L384 0H408V512H384L256 448L128 512H104V0Z" fill="var(--flag-palette-gold, #ff9811)"/>
<path d="M128 0H384V512H128V0Z" fill="var(--flag-palette-navy, #002266)"/>
<path d="M198 155L201 171L187 180L203 181L207 197L214 182L230 184L218 173L224 158L210 166L198 155ZM314 155L302 166L288 158L295 173L282 184L299 182L305 197L309 181L325 180L311 172L314 155ZM180 187L172 201L155 198L166 210L158 224L173 218L184 230L182 213L197 207L181 203L180 187ZM333 187L331 203L315 207L330 213L328 230L339 218L354 224L346 210L357 198L341 201L333 187ZM256 208C251.757 208 247.687 209.686 244.686 212.686C241.686 215.687 240 219.757 240 224C239.956 226.796 240.646 229.554 242 232C240.576 229.496 238.504 227.424 236 226C233.554 224.646 230.796 223.956 228 224C225.167 223.975 222.378 224.702 219.919 226.107C217.459 227.513 215.416 229.546 214 232C212.933 233.834 212.241 235.863 211.965 237.967C211.689 240.071 211.835 242.209 212.393 244.256C212.952 246.304 213.912 248.22 215.218 249.892C216.524 251.565 218.149 252.962 220 254C222.446 255.354 225.204 256.044 228 256C225.204 255.956 222.446 256.646 220 258C218.149 259.038 216.524 260.435 215.218 262.108C213.912 263.78 212.952 265.696 212.393 267.744C211.835 269.791 211.689 271.929 211.965 274.033C212.241 276.137 212.933 278.166 214 280C215.038 281.851 216.435 283.476 218.108 284.782C219.78 286.088 221.696 287.048 223.744 287.607C225.791 288.165 227.929 288.311 230.033 288.035C232.137 287.759 234.166 287.067 236 286C238.504 284.576 240.576 282.504 242 280C240.646 282.446 239.956 285.204 240 288C240 292.243 241.686 296.313 244.686 299.314C247.687 302.314 251.757 304 256 304C260.243 304 264.313 302.314 267.314 299.314C270.314 296.313 272 292.243 272 288C272.044 285.204 271.354 282.446 270 280C271.424 282.504 273.496 284.576 276 286C277.834 287.067 279.863 287.759 281.967 288.035C284.071 288.311 286.209 288.165 288.256 287.607C290.304 287.048 292.22 286.088 293.892 284.782C295.565 283.476 296.962 281.851 298 280C299.067 278.166 299.759 276.137 300.035 274.033C300.311 271.929 300.165 269.791 299.607 267.744C299.048 265.696 298.088 263.78 296.782 262.108C295.476 260.435 293.851 259.038 292 258C289.554 256.646 286.796 255.956 284 256C286.796 256.044 289.554 255.354 292 254C293.851 252.962 295.476 251.565 296.782 249.892C298.088 248.22 299.048 246.304 299.607 244.256C300.165 242.209 300.311 240.071 300.035 237.967C299.759 235.863 299.067 233.834 298 232C296.671 229.689 294.786 227.747 292.516 226.35C290.245 224.953 287.662 224.145 285 224C281.869 223.769 278.739 224.465 276 226C273.496 227.424 271.424 229.496 270 232C271.354 229.554 272.044 226.796 272 224C272 219.757 270.314 215.687 267.314 212.686C264.313 209.686 260.243 208 256 208ZM156 235V251L140 256L156 261V277L165 264L181 269L171 256L181 243L165 248L156 235ZM357 235L347 248L332 243L341 256L332 269L347 264L357 277V261L372 256L357 251V235ZM184 282L173 294L158 288L166 302L155 314L172 311L180 325L181 309L197 305L182 299L184 282ZM328 282L330 299L315 305L331 309L332 325L341 311L357 314L346 302L354 288L339 295L328 282ZM198 322L187 334C206.025 350.87 230.572 360.186 256 360.186C281.428 360.186 305.975 350.87 325 334L314 322C297.952 336.065 277.339 343.818 256 343.818C234.661 343.818 214.048 336.065 198 322Z" fill="var(--flag-palette-white, #eeeeee)"/>
<path d="M256 140L251 155H235L248 165L243 180L256 171L269 180L264 165L277 155H261L256 140ZM256 240C251.757 240 247.687 241.686 244.686 244.686C241.686 247.687 240 251.757 240 256C240 260.243 241.686 264.313 244.686 267.314C247.687 270.314 251.757 272 256 272C260.243 272 264.313 270.314 267.314 267.314C270.314 264.313 272 260.243 272 256C272 251.757 270.314 247.687 267.314 244.686C264.313 241.686 260.243 240 256 240Z" fill="var(--flag-palette-gold, #ff9811)"/>
</svg>

<svg xmlns="http://www.w3.org/2000/svg" width="512" height="512" fill="none"><path fill="var(--flag-palette-bright-red, #d80027)" d="M0 0h104l152 64L408 0h104v512H408l-152-64-152 64H0z"/><path fill="var(--flag-palette-gold, #ff9811)" d="M104 0h24l128 64L384 0h24v512h-24l-128-64-128 64h-24z"/><path fill="var(--flag-palette-navy, #002266)" d="M128 0h256v512H128z"/><path fill="var(--flag-palette-white, #eeeeee)" d="m198 155 3 16-14 9 16 1 4 16 7-15 16 2-12-11 6-15-14 8zm116 0-12 11-14-8 7 15-13 11 17-2 6 15 4-16 16-1-14-8zm-134 32-8 14-17-3 11 12-8 14 15-6 11 12-2-17 15-6-16-4zm153 0-2 16-16 4 15 6-2 17 11-12 15 6-8-14 11-12-16 3zm-77 21a16 16 0 0 0-16 16q0 4.3 2 8a16 16 0 0 0-6-6 16 16 0 0 0-8-2 16 16 0 1 0 0 32 16 16 0 0 0-15.6 11.7A16 16 0 0 0 214 280a16 16 0 0 0 22 6 16 16 0 0 0 6-6 16 16 0 0 0-2 8 16 16 0 0 0 32 0 16 16 0 0 0-2-8 16 16 0 0 0 12 8 16 16 0 0 0 16-8 16 16 0 0 0-14-24 16 16 0 0 0 15.6-11.7A16 16 0 0 0 285 224a16 16 0 0 0-15 8 16 16 0 0 0 2-8 16 16 0 0 0-16-16m-100 27v16l-16 5 16 5v16l9-13 16 5-10-13 10-13-16 5zm201 0-10 13-15-5 9 13-9 13 15-5 10 13v-16l15-5-15-5zm-173 47-11 12-15-6 8 14-11 12 17-3 8 14 1-16 16-4-15-6zm144 0 2 17-15 6 16 4 1 16 9-14 16 3-11-12 8-14-15 7zm-130 40-11 12a104 104 0 0 0 138 0l-11-12a88 88 0 0 1-116 0"/><path fill="var(--flag-palette-gold, #ff9811)" d="m256 140-5 15h-16l13 10-5 15 13-9 13 9-5-15 13-10h-16zm0 100a16 16 0 1 0 0 32 16 16 0 0 0 0-32"/></svg>
